svgs/thin/user-cowboy.svg

<svg xmlns="http://www.w3.org/2000/svg" viewBox="0 0 448 512"><!--! Font Awesome Pro 6.0.0-alpha3 by @fontawesome - https://fontawesome.com License - https://fontawesome.com/license (Commercial License) --><path d="M447 472.2C434 420.4 387.5 384 334 384H114c-53.45 0-100 36.38-113 88.24C-4.044 492.4 11.19 512 32 512h383.1C436.8 512 452.1 492.4 447 472.2zM415.1 496H32.06c-10.2 0-18.09-9.586-15.52-19.88C27.74 431.3 67.83 400 114 400h220c46.19 0 86.28 31.3 97.48 76.12C434.1 486.5 426.1 496 415.1 496zM110.9 124.3C111.5 124.4 112.1 124.5 112.7 124.5c3.654 0 6.967-2.531 7.811-6.25C135 53.28 154.5 16 173.1 16C180.9 16 188 18.78 195.1 24.28c17.44 13.62 41.84 13.59 59.22 .0313C261.5 18.78 268.6 16 275.5 16c19.56 0 39.03 37.09 53.38 101.8c.9687 4.312 5.279 7.094 9.529 6.094c4.312-.9687 7.062-5.219 6.094-9.531C327.7 38.47 304.5 0 275.5 0c-10.5 0-20.91 3.906-30.94 11.66c-11.66 9.125-27.88 9.125-39.66-.0313C194.9 3.906 184.5 0 173.1 0C145.2 0 121.9 38.59 104.9 114.8C103.9 119.1 106.6 123.3 110.9 124.3zM224 181.2c171.1 0 222.5-72.34 222.9-73.09c2.188-3.688 1.031-8.344-2.531-10.69c-3.594-2.344-8.406-1.438-10.91 2.062C432.9 100.1 384.2 165.2 224 165.2c-159.9 0-208.1-65.13-209.4-65.69c-2.5-3.625-7.5-4.5-11.12-2.062c-3.656 2.5-4.562 7.5-2.062 11.12C1.908 109.3 53.41 181.2 224 181.2zM104 216.1c-4.406 0-8.001 3.578-8.001 7.984C96 294.6 153.4 352 223.1 352s127.1-57.31 127.1-128c0-4.406-3.59-7.875-7.997-7.875s-8 3.688-8 8.094C335.1 285.8 285.8 336 224 336S112 285.8 112 224.2C112 219.8 108.4 216.1 104 216.1z"/></svg>

<svg xmlns="http://www.w3.org/2000/svg" viewBox="0 0 448 512"><!-- Font Awesome Pro 6.0.0-alpha2 by @fontawesome - https://fontawesome.com License - https://fontawesome.com/license (Commercial License) --><path d="M447.03 472.238C434.065 420.379 387.475 384 334.028 384H114.024C60.574 384 13.985 420.379 1.022 472.238C-4.027 492.438 11.246 512 32.063 512H415.987C436.803 512 452.076 492.438 447.03 472.238ZM415.987 496H32.063C21.864 496 13.969 486.414 16.545 476.117C27.746 431.301 67.832 400 114.024 400H334.028C380.217 400 420.303 431.301 431.506 476.117C434.108 486.523 426.076 496 415.987 496ZM110.942 124.312C111.535 124.438 112.129 124.5 112.692 124.5C116.346 124.5 119.658 121.969 120.502 118.25C135.033 53.281 154.533 16 174.002 16C180.877 16 188.002 18.781 195.127 24.281C212.565 37.906 236.971 37.875 254.346 24.313C261.502 18.781 268.627 16 275.502 16C295.065 16 314.533 53.094 328.877 117.75C329.846 122.062 334.157 124.844 338.407 123.844C342.719 122.875 345.469 118.625 344.5 114.312C327.658 38.469 304.471 0 275.502 0C265.002 0 254.596 3.906 244.565 11.656C232.908 20.781 216.69 20.781 204.908 11.625C194.908 3.906 184.502 0 174.002 0C145.19 0 121.94 38.594 104.879 114.75C103.91 119.062 106.629 123.344 110.942 124.312ZM224.002 181.156C395.969 181.156 446.469 108.812 446.875 108.062C449.063 104.375 447.907 99.719 444.344 97.375C440.75 95.031 435.938 95.937 433.438 99.437C432.938 100.094 384.25 165.156 224.002 165.156C64.067 165.156 15.004 100.031 14.598 99.469C12.098 95.844 7.098 94.969 3.473 97.406C-0.183 99.906 -1.09 104.906 1.41 108.531C1.91 109.25 53.41 181.156 224.002 181.156ZM104.004 216.125C99.598 216.125 96.004 219.812 96.004 224.219C96.004 294.688 153.408 352 224.002 352S352 294.688 352 224C352 219.594 348.407 216.125 344 216.125S336 219.812 336 224.219C336 285.844 285.752 336 224.002 336S112.004 285.844 112.004 224.219V224C112.004 219.594 108.41 216.125 104.004 216.125Z"/></svg>
